!!!COM: Mozart	
!!!OTL: Zehn Variationen in G, uber die Ariette 'Unser dummer Pobel meint' aus dem Singspiel 'Die Pilgrime von Mekka'
!!!Variation: Variation 9 c
!!!COM: Mozart
**function	**harm	**kern	**kern
*M4/4	*M4/4	*staff2	*staff1
*G:	*G:	*clefF4	*clefG2
*tb96	*	*k[f#]	*k[f#]
*	*	*met(c|)	*met(c|)
*	*	*M2/2	*M2/2
*	*	*G:	*G:
=-	=-	=-	=-
*	*	*	*clefF4
1T	1I	[8gL	2GG 2G
.	.	24gL]	.
.	.	24a'	.
.	.	24b'JJ	.
.	.	24cc'LL	.
.	.	24dd'	.
.	.	24ee'J	.
.	.	24ff#'L	.
.	.	24gg'	.
.	.	24aa'JJ	.
.	.	8bb	4r
.	.	16.r	.
.	.	32g	.
.	.	(8.gL	4GG 4G
.	.	32f#LL	.
.	.	32gJJJ)	.
=	=	=186	=186
1T	1V6	24f#'LL	2FF# 2F#
.	.	24g'	.
.	.	24a'J	.
.	.	24bL	.
.	.	24cc#'	.
.	.	24dd'JJ	.
.	.	24ee'LL	.
.	.	24ff#'	.
.	.	24gg'J	.
.	.	24aa'L	.
.	.	24bb'	.
.	.	24ccc#'JJ	.
.	.	8ddd	4r
.	.	16.r	.
.	.	32f#	.
.	.	(8.f#L	4FF# 4F#
.	.	32eLL	.
.	.	32f#JJJ)	.
=	=	=187	=187
2P	2V43/V	(16eLL	4EE 4E
.	.	16cc#	.
.	.	16g	.
.	.	16eeJJ	.
.	.	16cc#LL	4r
.	.	16gg	.
.	.	16ee	.
.	.	16ccc#JJ)	.
2P	2V7/V	(16ggLL	2A 2e 2g
.	.	16eee	.
.	.	16ddd	.
.	.	16ccc#JJ	.
.	.	16bbLL	.
.	.	16aa	.
.	.	16gg#	.
.	.	16aaJJ)	.
=	=	=188	=188
*	*	*	*^
2D	2I64	(4..aa	4g	2d
.	.	.	8f#L	.
.	.	.	8eJ	.
.	.	16ddd)	.	.
2D	2V	8ddL	8f#	8d
.	.	8dd	8r	8r
.	.	8dd	(4D 4F#	4r
.	.	[8dJ [8dd	.	.
*	*	*	*v	*v
=	=	=189	=189
4D	4viio6/V	8d] 8dd]	4E 4G
.	.	4c# 4cc#	.
4D	4Gr43	.	4G 4B-
.	.	4e- 4ee-	.
4D	4V6	.	4F# 4A
.	.	4d 4dd	.
4D	4viio7/vi	.	4D#) 4F#
.	.	8c [8cc	.
=	=	=190	=190
2D	2vi	(12ccL]	8d
.	.	12b	.
.	.	.	8r
.	.	12ggJ)	.
.	.	(12ff#'L	4r
.	.	12ff'	.
.	.	12ee'J)	.
2P	2IV	(8dd#	8e
.	.	4ee)	8r
.	.	.	4r
.	.	(32ddLLL	.
.	.	32cc	.
.	.	32b	.
.	.	32aJJJ)	.
=	=	=191	=191
2D	2I64	16ddLL	[2D [2B
.	.	16cc#	.
.	.	16cc	.
.	.	16bJJ	.
.	.	16ddLL	.
.	.	16cc#	.
.	.	16cc	.
.	.	16bJJ	.
2D	2V7	8ddL	8D] 8B]
.	.	8ccJ	8r
.	.	8..r	8D 8A
.	.	.	8r
.	.	32f#	.
=	=	=192	=192
1T	1I	(2c [2d 2f# 2a	(4G
.	.	.	4D)
.	.	8B) 8d] 8g	8GG
.	.	8r	8r
.	.	4r	4r
=	=	=193	=193
*-	*-	*-	*-
